assets/images/per3-mob.svg

<svg width="253" height="352" viewBox="0 0 253 352" fill="none" xmlns="http://www.w3.org/2000/svg">
<path d="M12 319.797C12 327.182 10.278 330 5.98878 330C1.69954 330 0 326.96 0 319.785C0 312.06 2.42415 310 6.08722 310C9.98286 310 12 312.375 12 319.797ZM3.36784 319.682C3.36784 324.794 3.73908 327.436 6.01116 327.436C8.28325 327.436 8.63211 324.913 8.63211 319.744C8.63211 314.41 8.18487 312.585 6.02907 312.585C3.99403 312.581 3.36784 314.521 3.36784 319.682Z" fill="#FFB75E"/>
<path d="M252.989 266.215C252.989 266.37 252.989 266.52 252.989 266.675C252.867 268.924 251.914 271.03 250.338 272.533C248.763 274.036 246.692 274.813 244.58 274.695C242.468 274.576 240.486 273.572 239.067 271.901C237.648 270.23 236.908 268.029 237.009 265.779C237.119 263.562 238.037 261.478 239.568 259.971C241.098 258.464 243.12 257.652 245.204 257.709C247.287 257.766 249.268 258.687 250.724 260.275C252.18 261.864 252.997 263.995 253 266.215L252.989 266.215ZM240.702 266.215C240.732 267.434 241.212 268.591 242.037 269.436C242.862 270.281 243.966 270.746 245.11 270.73C246.254 270.714 247.347 270.218 248.151 269.351C248.955 268.483 249.406 267.313 249.406 266.094C249.406 264.875 248.955 263.705 248.151 262.838C247.347 261.97 246.254 261.475 245.11 261.459C243.966 261.443 242.862 261.908 242.037 262.753C241.212 263.597 240.732 264.755 240.702 265.973L240.702 266.215Z" fill="#FFB75E"/>
<path d="M128.014 19.7066C83.9325 19.7066 47.6788 53.2881 43.3472 96.3115C43.1405 98.3741 42.4434 100.357 41.3143 102.094C40.1851 103.831 38.6569 105.272 36.8576 106.296C28.405 111.111 21.3751 118.081 16.4823 126.5C11.5895 134.918 9.00803 144.484 9.00024 154.225L9.00024 219.725C8.99252 220.224 9.16887 220.708 9.49543 221.084C9.82199 221.461 10.2758 221.703 10.7698 221.765C11.0431 221.792 11.319 221.761 11.5797 221.675C11.8404 221.588 12.08 221.448 12.283 221.262C12.4861 221.077 12.648 220.851 12.7584 220.599C12.8688 220.347 12.9251 220.075 12.9238 219.8L12.9238 154.217C12.9113 142.951 16.6257 131.999 23.4861 123.073C29.8972 114.712 43.1353 117.404 45.921 127.574C55.8084 163.691 88.8096 190.232 127.998 190.232C167.187 190.232 200.192 163.691 210.079 127.574C212.861 117.404 226.099 114.712 232.51 123.073C239.372 131.999 243.087 142.951 243.076 154.217L243.076 258.657C243.069 259.155 243.244 259.638 243.57 260.015C243.896 260.391 244.349 260.634 244.842 260.697C245.116 260.724 245.392 260.694 245.653 260.607C245.914 260.521 246.154 260.381 246.358 260.195C246.561 260.01 246.724 259.784 246.834 259.532C246.945 259.279 247.001 259.007 247 258.731L247 154.217C246.992 144.476 244.411 134.91 239.518 126.492C234.625 118.073 227.595 111.103 219.143 106.288C217.343 105.264 215.815 103.824 214.686 102.086C213.557 100.349 212.86 98.3663 212.653 96.3036C208.349 53.2881 172.099 19.7066 128.014 19.7066Z" fill="#FFB75E"/>
<path d="M129.528 25.7307C172.411 26.7864 206.946 61.1413 207.977 103.75C209.074 149.138 171.538 186.597 125.862 185.69C105.076 185.294 85.2532 176.912 70.5525 162.303C55.8518 147.695 47.4164 127.995 47.0164 107.339C46.0997 61.9116 83.8208 24.6203 129.528 25.7307Z" fill="url(#paint0_linear_1227_17)"/>
<path d="M180.32 52.7964C151.181 23.6377 104.033 23.5423 75.0109 52.5832C45.9894 81.6241 46.0848 128.804 75.224 157.963C104.363 187.121 151.512 187.217 180.534 158.176C209.555 129.135 209.46 81.9551 180.32 52.7964Z" fill="#F9F9F9"/>
<path d="M12 252.564L12 252.849C12 253.607 11.842 254.334 11.5607 254.87C11.2794 255.406 10.8978 255.707 10.5 255.707C10.1022 255.707 9.72065 255.406 9.43934 254.87C9.15804 254.334 9 253.607 9 252.849L9 252.564C9 251.806 9.15804 251.079 9.43934 250.543C9.72065 250.008 10.1022 249.707 10.5 249.707C10.8978 249.707 11.2794 250.008 11.5607 250.543C11.842 251.079 12 251.806 12 252.564Z" fill="#FFB75E"/>
<path d="M12 285.634L12 286.02C12 286.531 11.842 287.021 11.5607 287.383C11.2794 287.744 10.8978 287.947 10.5 287.947C10.1022 287.947 9.72065 287.744 9.43934 287.383C9.15804 287.021 9 286.531 9 286.02L9 285.634C9 285.123 9.15804 284.633 9.43934 284.271C9.72065 283.91 10.1022 283.707 10.5 283.707C10.8978 283.707 11.2794 283.91 11.5607 284.271C11.842 284.633 12 285.123 12 285.634ZM12 317.512L12 317.897C12 318.409 11.842 318.899 11.5607 319.26C11.2794 319.622 10.8978 319.825 10.5 319.825C10.1022 319.825 9.72065 319.622 9.43934 319.26C9.15804 318.899 9 318.409 9 317.897L9 317.512C9 317.001 9.15804 316.51 9.43934 316.149C9.72065 315.787 10.1022 315.584 10.5 315.584C10.8978 315.584 11.2794 315.787 11.5607 316.149C11.842 316.51 12 317.001 12 317.512ZM12 349.393L12 349.779C12 350.29 11.842 350.78 11.5607 351.142C11.2794 351.503 10.8978 351.707 10.5 351.707C10.1022 351.707 9.72065 351.503 9.43934 351.142C9.15804 350.78 9 350.29 9 349.779L9 349.393C9 348.882 9.15804 348.392 9.43934 348.031C9.72065 347.669 10.1022 347.466 10.5 347.466C10.8978 347.466 11.2794 347.669 11.5607 348.031C11.842 348.392 12 348.882 12 349.393Z" fill="#FFB75E"/>
<path d="M14.3118 315.3C14.3118 312.927 15.4134 310 19.4709 310C22.9297 310 24.4014 312.024 24.4014 314.955C24.4014 317.385 23.3247 318.576 22.0151 319.06V319.109C23.678 319.647 25 320.973 25 323.875C25 327.11 23.7237 330 19.342 330C15.6296 330 14.0915 327.734 14 324.741H16.989C17.068 326.137 17.6417 327.537 19.4086 327.537C21.3292 327.537 21.8446 326.014 21.8446 323.957C21.8446 321.424 20.8843 320.542 18.6061 320.542H17.7249V318.005H18.5563C20.4312 318.005 21.3001 317.377 21.3001 315.131C21.3001 313.555 20.8843 312.463 19.2797 312.463C17.4879 312.463 17.2301 314.195 17.1678 315.279L14.3118 315.3Z" fill="#FFB75E"/>
<path d="M110.08 103.249C110.722 103.873 111.03 104.688 110.948 105.547C110.864 106.426 110.36 107.25 109.6 107.75C109.196 108.014 108.739 108.193 108.259 108.288V109.145C108.259 109.715 107.798 110.175 107.229 110.175C106.661 110.175 106.199 109.713 106.199 109.145V108.161C105.025 107.78 104.094 106.893 103.576 105.655C103.355 105.131 103.603 104.526 104.128 104.307C104.652 104.086 105.255 104.334 105.476 104.859C105.845 105.738 106.436 106.081 106.869 106.212C107.416 106.38 108.044 106.308 108.47 106.028C108.713 105.869 108.873 105.615 108.898 105.352C108.92 105.122 108.835 104.911 108.646 104.727C108.447 104.534 107.88 104.4 107.379 104.282C106.514 104.079 105.436 103.825 104.648 103.017C103.97 102.318 103.697 101.275 103.934 100.293C104.178 99.2847 104.898 98.51 105.91 98.1671C106.006 98.1349 106.102 98.1078 106.2 98.082V97.1552C106.2 96.5854 106.662 96.1252 107.23 96.1252C107.799 96.1252 108.26 96.5867 108.26 97.1552V98.0421C108.616 98.1207 108.955 98.2445 109.262 98.412C110.059 98.849 110.593 99.5374 110.807 100.405C110.944 100.958 110.606 101.516 110.053 101.651C109.5 101.787 108.942 101.45 108.807 100.897C108.733 100.597 108.558 100.375 108.273 100.218C107.816 99.9679 107.132 99.928 106.572 100.117C106.145 100.262 105.992 100.554 105.939 100.775C105.866 101.071 105.94 101.387 106.126 101.577C106.494 101.953 107.154 102.109 107.853 102.274C108.648 102.465 109.473 102.659 110.08 103.249ZM145.787 122.45C145.981 122.644 146.089 122.906 146.089 123.179C146.089 123.452 145.981 123.714 145.787 123.907C140.616 129.079 133.739 131.926 126.423 131.926C123.382 131.926 120.408 131.433 117.57 130.461C116.844 131.354 115.738 131.926 114.501 131.926H99.9574C97.7776 131.926 96.0039 130.153 96.0039 127.973C96.0039 126.814 96.504 125.771 97.2994 125.047C96.504 124.323 96.0039 123.281 96.0039 122.123C96.0039 120.964 96.504 119.921 97.2994 119.197C96.504 118.474 96.0039 117.431 96.0039 116.273C96.0039 114.091 97.7776 112.316 99.9574 112.316H100.751C97.8795 110.28 96 106.931 96 103.152C96 99.1275 98.1282 95.5916 101.319 93.609C105.678 83.6097 115.494 77.167 126.424 77.167C126.994 77.167 127.454 77.6285 127.454 78.197V104.119L145.787 122.45ZM107.229 112.316C112.282 112.316 116.393 108.205 116.393 103.152C116.393 98.0962 112.282 93.9841 107.229 93.9841C102.173 93.9841 98.0612 98.0962 98.0612 103.152C98.0612 108.205 102.175 112.316 107.229 112.316ZM99.9574 118.166H114.501C115.545 118.166 116.393 117.316 116.393 116.273C116.393 115.228 115.543 114.377 114.501 114.377H99.9574C98.9133 114.377 98.0651 115.228 98.0651 116.273C98.0651 117.317 98.9146 118.166 99.9574 118.166ZM99.9574 124.015H114.501C115.545 124.015 116.393 123.166 116.393 122.123C116.393 121.078 115.543 120.227 114.501 120.227H99.9574C98.9133 120.227 98.0651 121.078 98.0651 122.123C98.0651 123.167 98.9146 124.015 99.9574 124.015ZM116.393 127.973C116.393 126.927 115.543 126.077 114.501 126.077H99.9574C98.9133 126.077 98.0651 126.927 98.0651 127.973C98.0651 129.017 98.9146 129.865 99.9574 129.865H114.501C115.545 129.866 116.393 129.017 116.393 127.973ZM143.588 123.165L125.696 105.276C125.6 105.181 125.525 105.067 125.473 104.942C125.421 104.817 125.394 104.683 125.394 104.548V79.2488C116.487 79.6072 108.5 84.5881 104.242 92.3264C105.215 92.0579 106.22 91.9222 107.229 91.9229C113.419 91.9229 118.454 96.9605 118.454 103.152C118.454 106.931 116.576 110.28 113.704 112.316H114.501C116.68 112.316 118.454 114.091 118.454 116.273C118.454 117.431 117.954 118.474 117.159 119.197C117.954 119.921 118.454 120.965 118.454 122.123C118.454 123.281 117.954 124.323 117.159 125.047C117.954 125.771 118.454 126.815 118.454 127.973C118.454 128.175 118.439 128.375 118.409 128.57C120.981 129.429 123.671 129.866 126.423 129.866C132.845 129.866 138.9 127.495 143.588 123.165ZM130.07 101.456V75.1032C130.07 74.5334 130.531 74.0732 131.1 74.0732C138.414 74.0732 145.29 76.9221 150.462 82.0938C155.632 87.2655 158.481 94.1427 158.481 101.457C158.481 102.027 158.019 102.487 157.451 102.487H131.101C130.531 102.487 130.07 102.025 130.07 101.456ZM132.131 100.426H156.399C155.871 87.281 145.274 76.6836 132.131 76.1538V100.426ZM162 106.13C162 113.444 159.152 120.32 153.981 125.49C153.78 125.691 153.515 125.792 153.252 125.792C152.989 125.792 152.725 125.691 152.524 125.49L133.891 106.858C133.596 106.563 133.508 106.121 133.668 105.735C133.828 105.35 134.203 105.098 134.619 105.098H160.969C161.539 105.098 162 105.56 162 106.13ZM159.918 107.16H137.108L153.237 123.29C157.334 118.854 159.678 113.194 159.918 107.16Z" fill="black" fill-opacity="0.62"/>
<ellipse cx="107.5" cy="103" rx="6.5" ry="8" fill="white"/>
<defs>
<linearGradient id="paint0_linear_1227_17" x1="184.344" y1="162.197" x2="71.3619" y2="48.5082" gradientUnits="userSpaceOnUse">
<stop stop-color="#EBEAEA"/>
<stop offset="1" stop-color="white"/>
</linearGradient>
</defs>
</svg>

<svg width="253" height="352" fill="none" xmlns="http://www.w3.org/2000/svg"><path d="M12 319.797C12 327.182 10.278 330 5.989 330 1.699 330 0 326.96 0 319.785 0 312.06 2.424 310 6.087 310c3.896 0 5.913 2.375 5.913 9.797Zm-8.632-.115c0 5.112.371 7.754 2.643 7.754s2.621-2.523 2.621-7.692c0-5.334-.447-7.159-2.603-7.159-2.035-.004-2.661 1.936-2.661 7.097ZM252.989 266.215v.46c-.122 2.249-1.075 4.355-2.651 5.858-1.575 1.503-3.646 2.28-5.758 2.162-2.112-.119-4.094-1.123-5.513-2.794-1.419-1.671-2.159-3.872-2.058-6.122.11-2.217 1.028-4.301 2.559-5.808 1.53-1.507 3.552-2.319 5.636-2.262 2.083.057 4.064.978 5.52 2.566 1.456 1.589 2.273 3.72 2.276 5.94h-.011Zm-12.287 0a4.782 4.782 0 0 0 1.335 3.221 4.212 4.212 0 0 0 3.073 1.294c1.144-.016 2.237-.512 3.041-1.379a4.798 4.798 0 0 0 1.255-3.257 4.793 4.793 0 0 0-1.255-3.256 4.227 4.227 0 0 0-3.041-1.379 4.212 4.212 0 0 0-3.073 1.294 4.78 4.78 0 0 0-1.335 3.22v.242Z" fill="#FFB75E"/><path d="M128.014 19.707c-44.082 0-80.335 33.581-84.667 76.604a12.986 12.986 0 0 1-6.49 9.985A55.129 55.129 0 0 0 16.483 126.5 55.264 55.264 0 0 0 9 154.225v65.5a2.025 2.025 0 0 0 1.77 2.04 1.968 1.968 0 0 0 1.513-.503 1.961 1.961 0 0 0 .64-1.462v-65.583a51.015 51.015 0 0 1 10.563-31.144c6.411-8.361 19.65-5.669 22.435 4.501 9.887 36.117 42.889 62.658 82.077 62.658 39.189 0 72.194-26.541 82.081-62.658 2.782-10.17 16.02-12.862 22.431-4.501a51.018 51.018 0 0 1 10.566 31.144v104.44a2.024 2.024 0 0 0 1.766 2.04 1.956 1.956 0 0 0 1.516-.502 1.959 1.959 0 0 0 .642-1.464V154.217a55.264 55.264 0 0 0-7.482-27.725 55.134 55.134 0 0 0-20.375-20.204 12.949 12.949 0 0 1-4.457-4.202 12.99 12.99 0 0 1-2.033-5.782c-4.304-43.016-40.554-76.597-84.639-76.597Z" fill="#FFB75E"/><path d="M129.528 25.73c42.883 1.056 77.418 35.411 78.449 78.02 1.097 45.388-36.439 82.847-82.115 81.94-20.786-.396-40.609-8.778-55.31-23.387-14.7-14.608-23.136-34.308-23.536-54.964-.916-45.427 36.805-82.719 82.512-81.608Z" fill="url(#a)"/><path d="M180.32 52.796c-29.139-29.158-76.287-29.254-105.31-.213-29.02 29.041-28.925 76.221.214 105.38 29.139 29.158 76.288 29.254 105.31.213 29.021-29.041 28.926-76.22-.214-105.38Z" fill="#F9F9F9"/><path d="M12 252.564v.285c0 .758-.158 1.485-.44 2.021-.28.536-.662.837-1.06.837s-.78-.301-1.06-.837c-.282-.536-.44-1.263-.44-2.021v-.285c0-.758.158-1.485.44-2.021.28-.535.662-.836 1.06-.836s.78.301 1.06.836c.282.536.44 1.263.44 2.021ZM12 285.634v.386c0 .511-.158 1.001-.44 1.363-.28.361-.662.564-1.06.564s-.78-.203-1.06-.564c-.282-.362-.44-.852-.44-1.363v-.386c0-.511.158-1.001.44-1.363.28-.361.662-.564 1.06-.564s.78.203 1.06.564c.282.362.44.852.44 1.363Zm0 31.878v.385c0 .512-.158 1.002-.44 1.363-.28.362-.662.565-1.06.565s-.78-.203-1.06-.565c-.282-.361-.44-.851-.44-1.363v-.385c0-.511.158-1.002.44-1.363.28-.362.662-.565 1.06-.565s.78.203 1.06.565c.282.361.44.852.44 1.363Zm0 31.881v.386c0 .511-.158 1.001-.44 1.363-.28.361-.662.565-1.06.565s-.78-.204-1.06-.565c-.282-.362-.44-.852-.44-1.363v-.386c0-.511.158-1.001.44-1.362.28-.362.662-.565 1.06-.565s.78.203 1.06.565c.282.361.44.851.44 1.362ZM14.312 315.3c0-2.373 1.101-5.3 5.159-5.3 3.459 0 4.93 2.024 4.93 4.955 0 2.43-1.076 3.621-2.386 4.105v.049c1.663.538 2.985 1.864 2.985 4.766 0 3.235-1.276 6.125-5.658 6.125-3.712 0-5.25-2.266-5.342-5.259h2.989c.079 1.396.653 2.796 2.42 2.796 1.92 0 2.436-1.523 2.436-3.58 0-2.533-.96-3.415-3.239-3.415h-.881v-2.537h.831c1.875 0 2.744-.628 2.744-2.874 0-1.576-.416-2.668-2.02-2.668-1.792 0-2.05 1.732-2.112 2.816l-2.856.021Z" fill="#FFB75E"/><path d="M110.08 103.249c.642.624.95 1.439.868 2.298a3.016 3.016 0 0 1-1.348 2.203 3.793 3.793 0 0 1-1.341.538v.857a1.03 1.03 0 1 1-2.06 0v-.984c-1.174-.381-2.105-1.268-2.623-2.506a1.03 1.03 0 1 1 1.9-.796c.369.879.96 1.222 1.393 1.353.547.168 1.175.096 1.601-.184a.934.934 0 0 0 .428-.676c.022-.23-.063-.441-.252-.625-.199-.193-.766-.327-1.267-.445-.865-.203-1.943-.457-2.731-1.265-.678-.699-.951-1.742-.714-2.724.244-1.008.964-1.783 1.976-2.126.096-.032.192-.06.29-.085v-.927a1.03 1.03 0 1 1 2.06 0v.887c.356.079.695.203 1.002.37a3.061 3.061 0 0 1 1.545 1.993 1.028 1.028 0 0 1-.754 1.246 1.028 1.028 0 0 1-1.246-.754 1.026 1.026 0 0 0-.534-.679c-.457-.25-1.141-.29-1.701-.101-.427.145-.58.437-.633.658-.073.296.001.612.187.802.368.376 1.028.532 1.727.697.795.191 1.62.385 2.227.975Zm35.707 19.201a1.03 1.03 0 0 1 0 1.457c-5.171 5.172-12.048 8.019-19.364 8.019a27.24 27.24 0 0 1-8.853-1.465 3.949 3.949 0 0 1-3.069 1.465H99.957a3.958 3.958 0 0 1-3.953-3.953c0-1.159.5-2.202 1.295-2.926a3.947 3.947 0 0 1 0-5.85 3.942 3.942 0 0 1-1.295-2.924 3.96 3.96 0 0 1 3.953-3.957h.794C97.879 110.28 96 106.931 96 103.152c0-4.025 2.128-7.56 5.319-9.543a27.333 27.333 0 0 1 25.105-16.442c.57 0 1.03.462 1.03 1.03v25.922l18.333 18.331Zm-38.558-10.134c5.053 0 9.164-4.111 9.164-9.164 0-5.056-4.111-9.168-9.164-9.168-5.056 0-9.168 4.112-9.168 9.168 0 5.053 4.114 9.164 9.168 9.164Zm-7.272 5.85h14.544a1.895 1.895 0 0 0 0-3.789H99.957a1.895 1.895 0 0 0 0 3.789Zm0 5.849h14.544a1.894 1.894 0 0 0 0-3.788H99.957a1.894 1.894 0 0 0 0 3.788Zm16.436 3.958c0-1.046-.85-1.896-1.892-1.896H99.957a1.894 1.894 0 0 0 0 3.788h14.544a1.893 1.893 0 0 0 1.892-1.892Zm27.195-4.808-17.892-17.889a1.02 1.02 0 0 1-.302-.728v-25.3a25.27 25.27 0 0 0-21.152 13.078 11.201 11.201 0 0 1 2.987-.403c6.19 0 11.225 5.037 11.225 11.229 0 3.779-1.878 7.128-4.75 9.164h.797a3.96 3.96 0 0 1 3.953 3.957c0 1.158-.5 2.201-1.295 2.924a3.95 3.95 0 0 1 0 5.85 3.95 3.95 0 0 1 1.25 3.523 25.221 25.221 0 0 0 8.014 1.296c6.422 0 12.477-2.371 17.165-6.701Zm-13.518-21.709V75.103c0-.57.461-1.03 1.03-1.03 7.314 0 14.19 2.85 19.362 8.02 5.17 5.172 8.019 12.05 8.019 19.364 0 .57-.462 1.03-1.03 1.03h-26.35a1.03 1.03 0 0 1-1.031-1.031Zm2.061-1.03h24.268c-.528-13.145-11.125-23.742-24.268-24.272v24.272ZM162 106.13c0 7.314-2.848 14.19-8.019 19.36a1.03 1.03 0 0 1-1.457 0l-18.633-18.632a1.031 1.031 0 0 1 .728-1.76h26.35c.57 0 1.031.462 1.031 1.032Zm-2.082 1.03h-22.81l16.129 16.13a25.12 25.12 0 0 0 6.681-16.13Z" fill="#000" fill-opacity=".62"/><ellipse cx="107.5" cy="103" rx="6.5" ry="8" fill="#fff"/><defs><linearGradient id="a" x1="184.344" y1="162.197" x2="71.362" y2="48.508" gradientUnits="userSpaceOnUse"><stop stop-color="#EBEAEA"/><stop offset="1" stop-color="#fff"/></linearGradient></defs></svg>
